; generated by PrusaSlicer 2.3.2+win64 on 2022-01-12 at 22:10:26 UTC

; 

; external perimeters extrusion width = 0.45mm
; perimeters extrusion width = 0.45mm
; infill extrusion width = 0.45mm
; solid infill extrusion width = 0.45mm
; top infill extrusion width = 0.40mm
; first layer extrusion width = 0.42mm

M73 P0 R70
M73 Q0 S71
M201 X1000 Y1000 Z200 E5000 ; sets maximum accelerations, mm/sec^2
M203 X200 Y200 Z12 E120 ; sets maximum feedrates, mm/sec
M204 P1250 R1250 T1250 ; sets acceleration (P, T) and retract acceleration (R), mm/sec^2
M205 X8.00 Y8.00 Z0.40 E4.50 ; sets the jerk limits, mm/sec
M205 S0 T0 ; sets the minimum extruding and travel feed rate, mm/sec
M107
;TYPE:Custom
M862.3 P "MK3" ; printer model check
M862.1 P0.4 ; nozzle diameter check
M115 U3.10.0 ; tell printer latest fw version
G90 ; use absolute coordinates
M83 ; extruder relative mode
M104 S230 ; set extruder temp
M140 S85 ; set bed temp
M190 S85 ; wait for bed temp
M109 S230 ; wait for extruder temp
G28 W ; home all without mesh bed level
G80 ; mesh bed leveling
G1 Y-3.0 F1000.0 ; go outside print area
G92 E0.0
G1 X60.0 E9.0 F1000.0 ; intro line
G1 X100.0 E12.5 F1000.0 ; intro line
G92 E0.0
M221 S95

; Don't change E values below. Excessive value can damage the printer.

M907 E538 ; set extruder motor current
G21 ; set units to millimeters
G90 ; use absolute coordinates
M83 ; use relative distances for extrusion
M900 K0.08 ; Filament gcode LA 1.5
M900 K45 ; Filament gcode LA 1.0
;LAYER_CHANGE
;Z:0.2
;HEIGHT:0.2
;BEFORE_LAYER_CHANGE
G92 E0.0
;0.2


M73 P0 R69
G1 E-1.00000 F2100.000
G1 Z0.200 F10800.000
;AFTER_LAYER_CHANGE
;0.2
G1 Z0.400
G1 X55.249 Y6.729
G1 Z0.200
G1 E1.00000 F2100.000
M204 S1000
;TYPE:Skirt
;WIDTH:0.42
G1 F1200.000
G1 X55.940 Y6.628 E0.02190
G1 X172.424 Y7.283 E3.65232
M73 Q0 S70
G1 X173.303 Y7.466 E0.02813
G1 X175.356 Y8.504 E0.07215
G1 X175.815 Y8.810 E0.01728
G1 X176.189 Y9.209 E0.01716
G1 X245.194 Y103.073 E3.65275
G1 X245.506 Y103.681 E0.02142
G1 X245.632 Y104.356 E0.02154
G1 X245.617 Y106.755 E0.07522
G1 X245.374 Y107.631 E0.02849
G1 X197.879 Y200.845 E3.28018
G1 X197.321 Y201.547 E0.02813
G1 X195.442 Y202.932 E0.07320
G1 X194.783 Y203.261 E0.02308
G1 X194.056 Y203.372 E0.02308
G1 X77.594 Y202.717 E3.65163
G1 X77.054 Y202.651 E0.01704
G1 X76.541 Y202.462 E0.01716
G1 X74.487 Y201.408 E0.07239
G1 X73.822 Y200.805 E0.02813
G1 X4.806 Y106.928 E3.65331
G1 X4.495 Y106.323 E0.02130
G1 X4.369 Y105.652 E0.02142
G1 X4.382 Y103.253 E0.07522
G1 X4.614 Y102.394 E0.02790
G1 X52.108 Y9.180 E3.28018
M73 P1 R69
G1 X52.679 Y8.454 E0.02896
G1 X54.618 Y7.027 E0.07547
G1 X55.195 Y6.755 E0.02001
; printing object hub.stl id:0 copy 0
;WIPE_START
G1 F8640.000
G1 X55.940 Y6.628 E-0.17455
G1 X59.299 Y6.647 E-0.77545
;WIPE_END
G1 E-0.05000 F2100.000
G1 Z0.400 F10800.000
G1 X124.159 Y104.029
M73 Q1 S70
G1 Z0.200
G1 E1.00000 F2100.000
;TYPE:Perimeter
G1 F1200.000
G1 X124.794 Y104.895 E0.03368
G1 X123.719 Y104.891 E0.03368
G1 X124.131 Y104.082 E0.02844
;WIPE_START
G1 F8640.000
G1 X124.794 Y104.895 E-0.24213
G1 X123.719 Y104.891 E-0.24805
G1 X124.131 Y104.082 E-0.20946
;WIPE_END
G1 E-0.30036 F2100.000
G1 Z0.400 F10800.000
G1 X125.206 Y105.105
G1 Z0.200
G1 E1.00000 F2100.000
G1 F1200.000
G1 X126.280 Y105.110 E0.03368
G1 X125.841 Y105.972 E0.03032
G1 X125.242 Y105.154 E0.03180
G1 X125.041 Y105.519 F10800.000
G1 F1200.000
G1 X77.267 Y199.281 E3.29948
G1 X76.781 Y199.033 E0.01711
G1 X124.555 Y105.271 E3.29946
G1 X7.534 Y104.767 E3.66914
G1 X7.536 Y104.221 E0.01711
G1 X123.383 Y104.720 E3.63233
M73 P1 R68
G1 X123.823 Y103.857 E0.03039
G1 X55.326 Y10.428 E3.63233
M73 Q1 S69
G1 X55.766 Y10.105 E0.01711
G1 X124.958 Y104.481 E3.66914
G1 X172.732 Y10.718 E3.29948
G1 X173.218 Y10.966 E0.01711
G1 X125.444 Y104.729 E3.29950
M73 P2 R68
M73 Q2 S69
G1 X242.466 Y105.233 E3.66918
G1 X242.464 Y105.779 E0.01711
G1 X126.617 Y105.280 E3.63233
G1 X126.177 Y106.144 E0.03039
G1 X194.674 Y199.572 E3.63233
G1 X194.233 Y199.895 E0.01711
G1 X125.077 Y105.567 E3.66730
G1 X125.099 Y106.235 F10800.000
;TYPE:External perimeter
G1 F1200.000
G1 X77.432 Y199.788 E3.29211
G1 X76.274 Y199.198 E0.04076
G1 X123.941 Y105.646 E3.29209
G1 X7.155 Y105.142 E3.66177
M73 P3 R67
M73 Q3 S69
G1 X7.161 Y103.842 E0.04076
G1 X123.152 Y104.342 E3.63687
M73 Q3 S68
G1 X123.382 Y103.892 E0.01583
G1 X54.799 Y10.347 E3.63687
G1 X55.848 Y9.578 E0.04076
G1 X124.900 Y103.764 E3.66177
G1 X172.567 Y10.211 E3.29210
G1 X173.725 Y10.801 E0.04076
G1 X126.058 Y104.355 E3.29212
G1 X242.845 Y104.858 E3.66181
G1 X242.839 Y106.158 E0.04076
G1 X126.847 Y105.658 E3.63687
M73 P4 R67
G1 X126.618 Y106.108 E0.01583
G1 X195.201 Y199.654 E3.63687
M73 Q4 S68
G1 X194.152 Y200.422 E0.04076
G1 X125.135 Y106.284 E3.65992
G1 X124.775 Y106.002 F10800.000
G1 X125.913 Y106.246
;TYPE:Gap fill
;WIDTH:0.211692
G1 F1200.000
G1 X194.342 Y199.582 E1.62413
;WIPE_START
M73 P4 R66
G1 F8640.000
G1 X191.909 Y196.264 E-0.95000
;WIPE_END
G1 E-0.05000 F2100.000
G1 Z0.400 F10800.000
G1 X242.276 Y105.506
G1 Z0.200
G1 E1.00000 F2100.000
;WIDTH:0.211689
G1 F1200.000
G1 X126.544 Y105.007 E1.62410
;WIPE_START
M73 Q4 S67
G1 F8640.000
G1 X130.659 Y105.025 E-0.95000
;WIPE_END
G1 E-0.05000 F2100.000
G1 Z0.400 F10800.000
G1 X172.890 Y11.010
G1 Z0.200
G1 E1.00000 F2100.000
;WIDTH:0.211684
G1 F1200.000
G1 X125.085 Y104.831 E1.47762
G1 X125.092 Y104.916 E0.00120
G1 X124.986 Y105.124 F10800.000
;WIDTH:0.211683
G1 F1200.000
G1 X124.913 Y105.169 E0.00120
G1 X77.109 Y198.989 E1.47760
;WIPE_START
G1 F8640.000
G1 X78.977 Y195.323 E-0.95000
;WIPE_END
G1 E-0.05000 F2100.000
G1 Z0.400 F10800.000
G1 X7.724 Y104.495
G1 Z0.200
G1 E1.00000 F2100.000
;WIDTH:0.211692
G1 F1200.000
G1 X123.455 Y104.994 E1.62413
;WIPE_START
M73 P5 R66
M73 Q5 S67
G1 F8640.000
G1 X119.341 Y104.976 E-0.95000
;WIPE_END
G1 E-0.05000 F2100.000
G1 Z0.400 F10800.000
G1 X124.087 Y103.755
G1 Z0.200
G1 E1.00000 F2100.000
;WIDTH:0.211696
G1 F1200.000
G1 X55.658 Y10.419 E1.62417
; stop printing object hub.stl id:0 copy 0
;LAYER_CHANGE
;Z:0.35
;HEIGHT:0.15
;BEFORE_LAYER_CHANGE
G92 E0.0
;0.35


;WIPE_START
G1 F8640.000
G1 X58.090 Y13.737 E-0.95000
;WIPE_END
G1 E-0.05000 F2100.000
G1 Z0.400 F10800.000
;AFTER_LAYER_CHANGE
;0.35
M104 S240 ; set temperature
M140 S90 ; set bed temperature
G1 X55.249 Y6.729
G1 Z0.350
G1 E1.00000 F2100.000
;TYPE:Skirt
;WIDTH:0.42
G1 F3000.000
G1 X55.940 Y6.628 E0.01689
G1 X172.424 Y7.283 E2.81719
G1 X173.303 Y7.466 E0.02170
G1 X175.356 Y8.504 E0.05565
G1 X175.815 Y8.810 E0.01333
G1 X176.189 Y9.209 E0.01324
G1 X245.194 Y103.073 E2.81752
G1 X245.506 Y103.681 E0.01652
G1 X245.632 Y104.356 E0.01662
G1 X245.617 Y106.755 E0.05802
G1 X245.374 Y107.631 E0.02197
G1 X197.879 Y200.845 E2.53014
G1 X197.321 Y201.547 E0.02170
G1 X195.442 Y202.932 E0.05646
G1 X194.783 Y203.261 E0.01780
G1 X194.056 Y203.372 E0.01780
G1 X77.594 Y202.717 E2.81666
G1 X77.054 Y202.651 E0.01314
G1 X76.541 Y202.462 E0.01324
G1 X74.487 Y201.408 E0.05583
G1 X73.822 Y200.805 E0.02170
G1 X4.806 Y106.928 E2.81795
G1 X4.495 Y106.323 E0.01643
G1 X4.369 Y105.652 E0.01652
G1 X4.382 Y103.253 E0.05802
G1 X4.614 Y102.394 E0.02152
G1 X52.108 Y9.180 E2.53014
G1 X52.679 Y8.454 E0.02233
G1 X54.618 Y7.027 E0.05821
G1 X55.195 Y6.755 E0.01544
; printing object hub.stl id:0 copy 0
;WIPE_START
G1 F8640.000
G1 X55.940 Y6.628 E-0.17455
G1 X59.299 Y6.647 E-0.77545
;WIPE_END
G1 E-0.05000 F2100.000
G1 Z0.550 F10800.000
G1 X55.798 Y9.904
G1 Z0.350
G1 E1.00000 F2100.000
M204 S800
;TYPE:Perimeter
;WIDTH:0.45
G1 F3600.000
G1 X124.935 Y104.207 E3.04675
G1 X172.669 Y10.524 E2.73956
G1 X173.412 Y10.903 E0.02174
G1 X125.679 Y104.586 E2.73957
G1 X242.611 Y105.090 E3.04679
G1 X242.607 Y105.924 E0.02174
G1 X125.826 Y105.421 E3.04286
G1 X194.875 Y199.603 E3.04286
G1 X194.202 Y200.097 E0.02174
G1 X125.064 Y105.793 E3.04679
M73 P5 R65
G1 X77.330 Y199.475 E2.73956
G1 X76.587 Y199.096 E0.02174
G1 X124.320 Y105.414 E2.73955
M73 Q5 S66
G1 X7.389 Y104.911 E3.04675
M73 P6 R65
G1 X7.393 Y104.076 E0.02174
G1 X124.174 Y104.579 E3.04286
M73 Q6 S66
G1 X55.125 Y10.397 E3.04286
G1 X55.749 Y9.939 E0.02018
M204 S1000
;WIPE_START
G1 F8640.000
G1 X58.183 Y13.256 E-0.95000
;WIPE_END
G1 E-0.05000 F2100.000
G1 Z0.550 F10800.000
G1 X124.871 Y103.412
G1 Z0.350
G1 E1.00000 F2100.000
M204 S800
;TYPE:External perimeter
G1 X172.486 Y9.962 E2.73277
G1 X173.974 Y10.721 E0.04351
G1 X126.359 Y104.171 E2.73278
G1 X243.030 Y104.674 E3.03999
G1 X243.023 Y106.344 E0.04351
G1 X126.653 Y105.842 E3.03215
G1 X195.459 Y199.693 E3.03215
G1 X194.112 Y200.681 E0.04351
G1 X125.128 Y106.587 E3.03999
G1 X77.513 Y200.037 E2.73277
G1 X76.025 Y199.279 E0.04351
G1 X123.640 Y105.829 E2.73275
G1 X6.969 Y105.327 E3.03996
G1 X6.977 Y103.657 E0.04351
G1 X123.347 Y104.158 E3.03215
G1 X54.541 Y10.307 E3.03215
M73 P7 R65
G1 X55.887 Y9.320 E0.04351
G1 X124.836 Y103.364 E3.03840
M204 S1000
M73 Q7 S66
G1 X125.196 Y103.645 F10800.000
;WIPE_START
G1 F8640.000
G1 X126.705 Y99.699 E-0.95000
;WIPE_END
G1 E-0.05000 F2100.000
G1 Z0.550 F10800.000
G1 X124.794 Y104.731
G1 Z0.350
G1 E1.00000 F2100.000
;TYPE:Gap fill
;WIDTH:0.50794
G1 F2400.000
G1 X124.812 Y104.767 E0.00121
;WIDTH:0.55386
G1 X124.830 Y104.804 E0.00133
;WIDTH:0.59978
G1 X124.848 Y104.841 E0.00144
;WIDTH:0.645699
G1 X124.866 Y104.877 E0.00156
;WIDTH:0.691619
G1 X124.884 Y104.914 E0.00168
;WIDTH:0.737539
G1 X124.902 Y104.950 E0.00179
G1 X125.099 Y105.051 F10800.000
;WIDTH:0.780899
G1 F2400.000
G1 X124.999 Y105.000 E0.00524
;WIDTH:0.826674
G1 X124.980 Y105.037 E0.00209
;WIDTH:0.779436
G1 X124.961 Y105.075 E0.00197
;WIDTH:0.732197
G1 X124.942 Y105.113 E0.00184
;WIDTH:0.684959
G1 X124.922 Y105.150 E0.00172
;WIDTH:0.63772
G1 X124.903 Y105.188 E0.00160
;WIDTH:0.590481
G1 X124.884 Y105.226 E0.00147
;WIDTH:0.543243
G1 X124.865 Y105.263 E0.00135
;WIDTH:0.496004
G1 X124.846 Y105.301 E0.00122
;WIDTH:0.448764
G1 X77.053 Y199.100 E2.73484
;WIPE_START
G1 F8640.000
G1 X78.921 Y195.434 E-0.95000
;WIPE_END
G1 E-0.05000 F2100.000
G1 Z0.550 F10800.000
G1 X7.600 Y104.494
G1 Z0.350
G1 E1.00000 F2100.000
;WIDTH:0.462016
G1 F2400.000
G1 X124.661 Y104.992 E3.13787
;WIDTH:0.507937
G1 X124.701 Y104.985 E0.00121
;WIDTH:0.553857
G1 X124.741 Y104.978 E0.00133
;WIDTH:0.599778
G1 X124.781 Y104.971 E0.00144
;WIDTH:0.645698
G1 X124.822 Y104.964 E0.00156
;WIDTH:0.691619
G1 X124.862 Y104.957 E0.00168
;WIDTH:0.737539
G1 X124.902 Y104.950 E0.00179
;WIDTH:0.782106
G1 X124.950 Y104.975 E0.00255
;WIDTH:0.826674
G1 X124.999 Y105.000 E0.00270
;WIDTH:0.826673
G1 X125.018 Y104.962 E0.00209
;WIDTH:0.732196
G1 X125.057 Y104.887 E0.00369
;WIDTH:0.637718
G1 X125.095 Y104.812 E0.00319
;WIDTH:0.543241
G1 X125.134 Y104.736 E0.00269
;WIDTH:0.448764
G1 X172.946 Y10.900 E2.73595
;WIPE_START
M73 P7 R64
G1 F8640.000
G1 X171.078 Y14.566 E-0.95000
;WIPE_END
G1 E-0.05000 F2100.000
G1 Z0.550 F10800.000
G1 X124.794 Y104.731
G1 Z0.350
G1 E1.00000 F2100.000
;WIDTH:0.46202
G1 F2400.000
G1 X55.585 Y10.319 E3.13790
;WIPE_START
M73 Q7 S65
G1 F8640.000
G1 X58.017 Y13.637 E-0.95000
;WIPE_END
G1 E-0.05000 F2100.000
G1 Z0.550 F10800.000
G1 X242.400 Y105.506
G1 Z0.350
G1 E1.00000 F2100.000
;WIDTH:0.448769
G1 F2400.000
G1 X125.413 Y105.002 E3.03923
G1 X125.298 Y105.016 E0.00302
;WIDTH:0.55336
G1 X125.218 Y105.030 E0.00262
;WIDTH:0.644242
G1 X125.139 Y105.044 E0.00308
;WIDTH:0.735124
G1 X125.099 Y105.051 E0.00177
;WIDTH:0.735125
G1 X125.117 Y105.087 E0.00177
;WIDTH:0.689684
G1 X125.134 Y105.123 E0.00165
;WIDTH:0.644244
G1 X125.152 Y105.160 E0.00154
;WIDTH:0.598803
G1 X125.170 Y105.196 E0.00143
;WIDTH:0.553362
G1 X125.187 Y105.232 E0.00131
;WIDTH:0.507922
G1 X125.205 Y105.268 E0.00120
;WIDTH:0.462481
G1 X194.415 Y199.682 E3.14130
; stop printing object hub.stl id:0 copy 0
;LAYER_CHANGE
;Z:0.5
;HEIGHT:0.15
;BEFORE_LAYER_CHANGE
G92 E0.0
;0.5


;WIPE_START
G1 F8640.000
G1 X191.983 Y196.363 E-0.95000
;WIPE_END
G1 E-0.05000 F2100.000
G1 Z0.550 F10800.000
;AFTER_LAYER_CHANGE
;0.5
G1 X194.783 Y203.261
G1 Z0.500
G1 E1.00000 F2100.000
;TYPE:Skirt
;WIDTH:0.42
G1 F3000.000
G1 X194.056 Y203.372 E0.01780
G1 X77.594 Y202.717 E2.81666
G1 X77.054 Y202.651 E0.01314
G1 X76.541 Y202.462 E0.01324
G1 X74.487 Y201.408 E0.05583
G1 X73.822 Y200.805 E0.02170
G1 X4.806 Y106.928 E2.81795
G1 X4.495 Y106.323 E0.01643
G1 X4.369 Y105.652 E0.01652
G1 X4.382 Y103.253 E0.05802
G1 X4.614 Y102.394 E0.02152
G1 X52.108 Y9.180 E2.53014
G1 X52.679 Y8.454 E0.02233
G1 X54.618 Y7.027 E0.05821
G1 X55.249 Y6.729 E0.01689
G1 X55.940 Y6.628 E0.01689
G1 X172.424 Y7.283 E2.81719
G1 X173.303 Y7.466 E0.02170
G1 X175.356 Y8.504 E0.05565
G1 X175.815 Y8.810 E0.01333
G1 X176.189 Y9.209 E0.01324
G1 X245.194 Y103.073 E2.81752
G1 X245.506 Y103.681 E0.01652
G1 X245.632 Y104.356 E0.01662
G1 X245.617 Y106.755 E0.05802
G1 X245.374 Y107.631 E0.02197
G1 X197.879 Y200.845 E2.53014
G1 X197.321 Y201.547 E0.02170
G1 X195.442 Y202.932 E0.05646
G1 X194.837 Y203.234 E0.01635
; printing object hub.stl id:0 copy 0
;WIPE_START
G1 F8640.000
G1 X194.056 Y203.372 E-0.18318
G1 X190.735 Y203.354 E-0.76682
;WIPE_END
G1 E-0.05000 F2100.000
G1 Z0.700 F10800.000
G1 X194.202 Y200.097
G1 Z0.500
G1 E1.00000 F2100.000
M204 S800
;TYPE:Perimeter
;WIDTH:0.45
G1 F3600.000
G1 X125.064 Y105.793 E3.04679
M73 P8 R64
G1 X77.330 Y199.475 E2.73956
G1 X76.587 Y199.096 E0.02174
G1 X124.320 Y105.414 E2.73955
M73 Q8 S65
G1 X7.389 Y104.911 E3.04675
G1 X7.393 Y104.076 E0.02174
G1 X124.174 Y104.579 E3.04286
G1 X55.125 Y10.397 E3.04286
G1 X55.798 Y9.904 E0.02174
G1 X124.935 Y104.207 E3.04675
G1 X172.669 Y10.524 E2.73956
G1 X173.412 Y10.903 E0.02174
G1 X125.679 Y104.586 E2.73957
G1 X242.611 Y105.090 E3.04679
G1 X242.607 Y105.924 E0.02174
G1 X125.826 Y105.421 E3.04286
G1 X194.875 Y199.603 E3.04286
G1 X194.251 Y200.061 E0.02018
M204 S1000
;WIPE_START
G1 F8640.000
G1 X191.816 Y196.744 E-0.95000
;WIPE_END
G1 E-0.05000 F2100.000
G1 Z0.700 F10800.000
G1 X124.871 Y103.412
G1 Z0.500
G1 E1.00000 F2100.000
M204 S800
;TYPE:External perimeter
G1 X172.486 Y9.962 E2.73277
G1 X173.974 Y10.721 E0.04351
G1 X126.359 Y104.171 E2.73278
G1 X243.030 Y104.674 E3.03999
M73 P8 R63
M73 Q8 S64
G1 X243.023 Y106.344 E0.04351
G1 X126.653 Y105.842 E3.03215
G1 X195.459 Y199.693 E3.03215
G1 X194.112 Y200.681 E0.04351
G1 X125.128 Y106.587 E3.03999
M73 P9 R63
G1 X77.513 Y200.037 E2.73277
M73 Q9 S64
G1 X76.025 Y199.279 E0.04351
G1 X123.640 Y105.829 E2.73275
G1 X6.969 Y105.327 E3.03996
G1 X6.977 Y103.657 E0.04351
G1 X123.347 Y104.158 E3.03215
G1 X54.541 Y10.307 E3.03215
G1 X55.887 Y9.320 E0.04351
G1 X124.836 Y103.364 E3.03840
M204 S1000
G1 X125.196 Y103.645 F10800.000
;WIPE_START
G1 F8640.000
G1 X126.705 Y99.699 E-0.95000
;WIPE_END
G1 E-0.05000 F2100.000
G1 Z0.700 F10800.000
G1 X124.794 Y104.731
G1 Z0.500
G1 E1.00000 F2100.000
;TYPE:Gap fill
;WIDTH:0.50794
G1 F2400.000
G1 X124.812 Y104.767 E0.00121
;WIDTH:0.55386
G1 X124.830 Y104.804 E0.00133
;WIDTH:0.59978
G1 X124.848 Y104.841 E0.00144
;WIDTH:0.6457
G1 X124.866 Y104.877 E0.00156
;WIDTH:0.69162
G1 X124.884 Y104.914 E0.00168
;WIDTH:0.73754
G1 X124.902 Y104.950 E0.00179
G1 X125.099 Y105.051 F10800.000
;WIDTH:0.7809
G1 F2400.000
G1 X124.999 Y105.000 E0.00524
;WIDTH:0.826674
G1 X124.980 Y105.037 E0.00209
;WIDTH:0.779435
G1 X124.961 Y105.075 E0.00197
;WIDTH:0.732197
G1 X124.942 Y105.113 E0.00184
;WIDTH:0.684958
G1 X124.922 Y105.150 E0.00172
;WIDTH:0.637719
G1 X124.903 Y105.188 E0.00160
;WIDTH:0.59048
G1 X124.884 Y105.226 E0.00147
;WIDTH:0.543241
G1 X124.865 Y105.263 E0.00135
;WIDTH:0.496003
G1 X124.846 Y105.301 E0.00122
;WIDTH:0.448764
G1 X77.053 Y199.100 E2.73484
;WIPE_START
G1 F8640.000
G1 X78.921 Y195.434 E-0.95000
;WIPE_END
G1 E-0.05000 F2100.000
G1 Z0.700 F10800.000
G1 X7.600 Y104.494
G1 Z0.500
G1 E1.00000 F2100.000
;WIDTH:0.462018
G1 F2400.000
G1 X124.661 Y104.992 E3.13789
;WIDTH:0.507937
G1 X124.701 Y104.985 E0.00121
;WIDTH:0.553857
G1 X124.741 Y104.978 E0.00133
;WIDTH:0.599778
G1 X124.781 Y104.971 E0.00144
;WIDTH:0.645698
G1 X124.822 Y104.964 E0.00156
;WIDTH:0.691619
G1 X124.862 Y104.957 E0.00168
;WIDTH:0.737539
G1 X124.902 Y104.950 E0.00179
;WIDTH:0.782107
G1 X124.950 Y104.975 E0.00255
;WIDTH:0.826675
G1 X124.999 Y105.000 E0.00270
;WIDTH:0.826675
G1 X125.018 Y104.962 E0.00209
;WIDTH:0.732197
